X:1
T:Buxtehude - Aria:  La Capricciosa in G Minor.
%%score { ( 1 3 ) | ( 2 4 ) }
L:1/8
Q:1/4=100
M:4/4
K:G
V:1 treble nm="Harpsichord" snm="Hch."
V:3 treble 
V:2 bass 
V:4 bass 
V:1
"^Partita 26"!f! d/c/B/A/ G/F/E/D/ e/d/c/B/ A/G/F/E/ | a/g/f/e/ d/c/B/A/ z/ b/a/g/ f/e/d/c/ | %2
 z/ d/ z/ d/ z/ d/ z/ d/ z/ c/ z/ B/ z/ B/ z/ B/ | z/ A/G/A/ z/ A/c PB2 B2 :: %4
 b/c'/b/a/ g/a/=f/g/ e/f/e/d/ c/d/B/c/ | A/G/A/B/ c/d/e/f/ g/d/e/a/ d/g/c/f/ | %6
 B/b/f/b/ g/b/d/g/ e/a/c/f/ d/g/B/e/ | c/f/d/g/ e/a/c/f/ B/g/d/B/ G z :| %8
V:2
 G,,/A,,/B,,/C,/ D,/E,/F,/G,/ C,/D,/E,/F,/ G,/A,/B,/C/ | %1
 D,/E,/F,/G,/ A,/B,/C/D/ G,A,/B,/ C/D/E/F/ | GFGD E^DEB, | CA,DD, G,/(G,,/B,,/D,/) D2 :: %4
 G,/F,/G,/A,/ x2 x4 | x8 | GDEB, CA,B,G, | A,B,CD G,2 z/ G,/D,/G,,/ :| %8
V:3
 x8 | x8 | BABF GFGG | E2 F>F x2 G2 :: x2 B,/C/D/B,/ C/B,/C/D/ E/=F/G/E/ | F/E/F/G/ A/B/c/A/ BcBA | %6
 x8 | x8 :| %8
V:4
 x8 | x8 | x8 | x6 G,2 :: x8 | x8 | x8 | x8 :| %8

